public/svg/icon/spank.svg

<svg xmlns="http://www.w3.org/2000/svg" xmlns:xlink="http://www.w3.org/1999/xlink" width="32" height="32" viewBox="0 0 32 32"><defs><linearGradient id="spank-c" x1="50%" x2="50%" y1="0%" y2="100%"><stop offset="0%" stop-color="#FFF" stop-opacity=".5"/><stop offset="100%" stop-opacity=".5"/></linearGradient><circle id="spank-b" cx="16" cy="15" r="15"/><filter id="spank-a" width="111.7%" height="111.7%" x="-5.8%" y="-4.2%" filterUnits="objectBoundingBox"><feOffset dy=".5" in="SourceAlpha" result="shadowOffsetOuter1"/><feGaussianBlur in="shadowOffsetOuter1" result="shadowBlurOuter1" stdDeviation=".5"/><feComposite in="shadowBlurOuter1" in2="SourceAlpha" operator="out" result="shadowBlurOuter1"/><feColorMatrix in="shadowBlurOuter1" values="0 0 0 0 0 0 0 0 0 0 0 0 0 0 0 0 0 0 0.199473505 0"/></filter><path id="spank-e" d="M8.45852837,21.1410722 L8.45852837,21.2823776 L6.98217923,21.2823776 L6.98217923,18.6151386 L6.93639289,18.7626866 L5.52455222,18.3374478 L6.32213304,15.7674455 L6.22394964,15.9108671 L5,15.0975806 L6.52936914,12.8638864 L6.38351446,12.9802742 L5.45441792,11.8499896 L7.65529111,10.094226 L7.37405363,10.2006151 L6.8449813,8.84279754 L9.47372213,7.8487237 L9.16649823,7.86988513 L9.06351387,6.41903133 L11.8157533,6.22944083 L11.567274,6.17292396 L11.8993673,4.75580676 L14.5284572,5.35374401 L14.3627865,5.25954392 L15.1009744,4 L17.3939971,5.30419453 L17.3047443,5.20992038 L18.3844772,4.21802352 L20.1701231,6.10441384 L20.1321021,6.02753438 L21.4590254,5.38997237 L22.6045432,7.70370445 L22.594125,7.63896107 L24.052296,7.411444 L24.4819122,10.0836453 L24.5124686,9.89340411 L25.9706396,10.1209424 L25.5346329,12.8331494 L25.6424129,12.6153454 L26.9693361,13.2529391 L25.7407413,15.7344866 L25.9202672,15.5448274 L27,16.5367163 L25.0912153,18.5532414 L25.3222951,18.4217761 L26.0604831,19.681357 L23.6610768,21.0460574 L23.9024673,20.9911434 L24.2345606,22.4082712 L21.5833455,23.0112661 L21.7876281,23.0253384 L21.6846275,24.4761657 L19.030781,24.293331 L19.1660027,24.3444888 L18.6369304,25.7023117 L16.0965563,24.7416358 L16.2570716,24.8697153 L15.3279729,26 L13.2311775,24.3272951 L13.3347149,24.4784406 L12.1107385,25.2917271 L10.611915,23.1026305 L10.6564877,23.2462108 L9.24388822,23.6716612 L8.45852837,21.1410722 Z M8.45852837,19.4128715 L9.38062431,19.1351806 L10.0972456,21.4443154 L10.8945488,20.9145391 L12.2571839,22.9047183 L12.8657889,22.1643329 L14.7542742,23.6708148 L15.0920599,22.803937 L17.3677905,23.6645192 L17.4344884,22.7254281 L19.8696603,22.8931853 L19.6505561,21.9581677 L22.037772,21.4152184 L21.5431764,20.5712479 L23.674019,19.3592801 L22.9442085,18.6888333 L24.6274447,16.9106386 L23.7294932,16.4791572 L24.8120185,14.2926529 L23.8298622,14.1393913 L24.2158723,11.7384159 L23.2767314,11.8849059 L22.8908824,9.48493571 L22.0450218,9.89134087 L20.9702833,7.72057011 L20.2808567,8.35392629 L18.6178125,6.59703596 L18.1419588,7.40898928 L16.0367322,6.2116282 L15.8191853,7.13996407 L13.4508724,6.60132644 L13.519611,7.57001186 L11.0885205,7.73748338 L11.4480018,8.66001044 L9.15891551,9.52561855 L9.77479715,10.2748917 L7.85302733,11.8079841 L8.6641373,12.3469127 L7.27865735,14.3704211 L8.21223478,14.6516036 L7.48854633,16.9834869 L8.45852837,16.9834869 L8.45852837,19.4128715 Z M15.7085862,16.6884322 C15.7085862,16.3204737 15.5790851,16.0390683 15.3199864,15.8442699 C15.0609092,15.6451654 14.5945766,15.4373948 13.920978,15.2209043 C13.2473847,15.0001615 12.7141218,14.7837248 12.3211893,14.5715942 C11.2503414,13.9915052 10.7149202,13.2101585 10.7149202,12.2275005 C10.7149202,11.716697 10.8574142,11.2621638 11.142397,10.8639063 C11.4316965,10.4613158 11.8440596,10.1474745 12.3794809,9.92237178 C12.9192188,9.69726901 13.5237288,9.58471766 14.1930107,9.58471766 C14.866604,9.58471766 15.4668187,9.70809357 15.9935743,9.95483997 C16.5203837,10.1972588 16.92843,10.5414044 17.2177134,10.9872769 C17.5113457,11.4331547 17.658135,11.9396305 17.658135,12.506699 L15.7150827,12.506699 C15.7150827,12.0738256 15.5790851,11.7383407 15.307031,11.5002496 C15.0350036,11.2578308 14.6528682,11.1366241 14.1606247,11.1366241 C13.6856533,11.1366241 13.316468,11.2383509 13.0530741,11.4418101 C12.7896856,11.6409415 12.6579886,11.9050039 12.6579886,12.2340135 C12.6579886,12.5413633 12.8112744,12.7989235 13.1178461,13.0066941 C13.4287345,13.2144647 13.8842753,13.4092631 14.4844685,13.5910893 C15.5898769,13.9244373 16.3951241,14.3378254 16.90035,14.8313075 C17.4055221,15.3248434 17.658135,15.939543 17.658135,16.6754061 C17.658135,17.4935702 17.3494157,18.136421 16.7319235,18.6039587 C16.1144849,19.0671364 15.2832837,19.2987522 14.2383468,19.2987522 C13.512937,19.2987522 12.8522939,19.1667156 12.2564173,18.9026424 C11.6605461,18.6342631 11.2050053,18.2684577 10.8897949,17.8052799 C10.5789065,17.3421022 10.4234602,16.8052897 10.4234602,16.1949501 L12.3730058,16.1949501 C12.3730058,17.2381631 12.9947826,17.7597964 14.2383468,17.7597964 C14.7003627,17.7597964 15.0609092,17.6667303 15.3199864,17.480598 C15.5790851,17.2901595 15.7085862,17.0260863 15.7085862,16.6884322 Z M21.6386833,10.8903355 L19.7663632,17.7417921 L18.22292,17.6340695 L19.3900609,10.5701814 L21.6386833,10.8903355 Z M20.0053457,18.4562842 L19.5183726,20.8769943 L17.4657744,20.278318 L17.9371711,17.9559612 L20.0053457,18.4562842 Z"/><filter id="spank-d" width="115.9%" height="115.9%" x="-8%" y="-5.7%" filterUnits="objectBoundingBox"><feOffset dy=".5" in="SourceAlpha" result="shadowOffsetOuter1"/><feGaussianBlur in="shadowOffsetOuter1" result="shadowBlurOuter1" stdDeviation=".5"/><feColorMatrix in="shadowBlurOuter1" values="0 0 0 0 0 0 0 0 0 0 0 0 0 0 0 0 0 0 0.204257246 0"/></filter></defs><g fill="none" fill-rule="evenodd"><use fill="#000" filter="url(#spank-a)" xlink:href="#spank-b"/><use fill="#FF3B81" xlink:href="#spank-b"/><use fill="url(#spank-c)" style="mix-blend-mode:soft-light" xlink:href="#spank-b"/><circle cx="16" cy="15" r="14.5" stroke="#000" stroke-opacity=".097"/><g fill-rule="nonzero"><use fill="#000" filter="url(#spank-d)" xlink:href="#spank-e"/><use fill="#FFF" fill-rule="evenodd" xlink:href="#spank-e"/></g></g></svg>

<svg xmlns="http://www.w3.org/2000/svg" xmlns:xlink="http://www.w3.org/1999/xlink" width="32" height="32" viewBox="0 0 32 32"><defs><filter id="a" width="111.7%" height="111.7%" x="-5.8%" y="-4.2%" filterUnits="objectBoundingBox"><feOffset dy=".5" in="SourceAlpha" result="shadowOffsetOuter1"/><feGaussianBlur in="shadowOffsetOuter1" result="shadowBlurOuter1" stdDeviation=".5"/><feComposite in="shadowBlurOuter1" in2="SourceAlpha" operator="out" result="shadowBlurOuter1"/><feColorMatrix in="shadowBlurOuter1" values="0 0 0 0 0 0 0 0 0 0 0 0 0 0 0 0 0 0 0.199473505 0"/></filter><filter id="d" width="115.9%" height="115.9%" x="-8%" y="-5.7%" filterUnits="objectBoundingBox"><feOffset dy=".5" in="SourceAlpha" result="shadowOffsetOuter1"/><feGaussianBlur in="shadowOffsetOuter1" result="shadowBlurOuter1" stdDeviation=".5"/><feColorMatrix in="shadowBlurOuter1" values="0 0 0 0 0 0 0 0 0 0 0 0 0 0 0 0 0 0 0.204257246 0"/></filter><linearGradient id="c" x1="50%" x2="50%" y1="0%" y2="100%"><stop offset="0%" stop-color="#FFF" stop-opacity=".5"/><stop offset="100%" stop-opacity=".5"/></linearGradient><circle id="b" cx="16" cy="15" r="15"/><path id="e" d="M8.459 21.141v.141H6.982v-2.667l-.046.148-1.411-.426.797-2.57-.098.144L5 15.098l1.53-2.234-.146.116-.93-1.13 2.201-1.756-.28.107-.53-1.358 2.629-.994-.308.02-.102-1.45 2.752-.19-.249-.056.332-1.417 2.63.598-.166-.094L15.1 4l2.293 1.304-.09-.094 1.08-.992 1.786 1.886-.038-.076 1.327-.638 1.146 2.314-.01-.065 1.457-.228.43 2.673.03-.19 1.459.227-.436 2.712.107-.218 1.327.638-1.228 2.481.18-.19 1.079.993-1.909 2.016.231-.131.738 1.26-2.399 1.364.241-.055.333 1.417-2.652.603.205.014-.103 1.451-2.654-.183.135.051-.53 1.358-2.54-.96.161.128-.929 1.13-2.097-1.673.104.151-1.224.814-1.5-2.19.045.144-1.412.426-.785-2.53zm0-1.728l.922-.278.716 2.31.798-.53 1.362 1.99.609-.74 1.888 1.506.338-.867 2.276.86.066-.939 2.436.168-.22-.935 2.388-.543-.495-.844 2.131-1.212-.73-.67 1.683-1.778-.898-.432 1.083-2.186-.982-.154.386-2.4-.94.146-.385-2.4-.846.406-1.075-2.17-.69.633-1.662-1.757-.476.812-2.105-1.197-.218.928-2.368-.539.069.969-2.431.167.359.923-2.29.866.617.749-1.922 1.533.811.539L7.28 14.37l.933.282-.723 2.331h.97v2.43zm7.25-2.725c0-.368-.13-.649-.389-.844-.26-.199-.725-.407-1.399-.623-.674-.22-1.207-.437-1.6-.65-1.07-.58-1.606-1.36-1.606-2.343 0-.511.142-.966.427-1.364.29-.403.702-.717 1.237-.942.54-.225 1.145-.337 1.814-.337.674 0 1.274.123 1.8.37.527.242.935.586 1.225 1.032a2.7 2.7 0 01.44 1.52h-1.943c0-.433-.136-.769-.408-1.007-.272-.242-.654-.363-1.146-.363-.475 0-.845.101-1.108.305a.945.945 0 00-.395.792c0 .307.153.565.46.773.31.207.766.402 1.366.584 1.106.333 1.911.747 2.416 1.24.506.494.758 1.109.758 1.844 0 .819-.309 1.461-.926 1.929-.618.463-1.449.695-2.494.695a4.838 4.838 0 01-1.982-.396c-.595-.269-1.051-.635-1.366-1.098-.311-.463-.467-1-.467-1.61h1.95c0 1.043.622 1.565 1.865 1.565.462 0 .823-.093 1.082-.28a.928.928 0 00.389-.792zm5.93-5.798l-1.873 6.852-1.543-.108 1.167-7.064 2.249.32zm-1.634 7.566l-.487 2.421-2.052-.599.471-2.322 2.068.5z"/></defs><g fill="none" fill-rule="evenodd"><use fill="#000" filter="url(#a)" xlink:href="#b"/><use fill="#FF3B81" xlink:href="#b"/><use fill="url(#c)" style="mix-blend-mode:soft-light" xlink:href="#b"/><circle cx="16" cy="15" r="14.5" stroke="#000" stroke-opacity=".097"/><g fill-rule="nonzero"><use fill="#000" filter="url(#d)" xlink:href="#e"/><use fill="#FFF" fill-rule="evenodd" xlink:href="#e"/></g></g></svg>
